src/lib/packages/icons/src/assets/line/document-list-check.svg

<svg width="24" height="24" viewBox="0 0 24 24" fill="none" xmlns="http://www.w3.org/2000/svg">
<path d="M14.75 8C14.75 8.414 14.414 8.75 14 8.75H10.5C10.086 8.75 9.75 8.414 9.75 8C9.75 7.586 10.086 7.25 10.5 7.25H14C14.414 7.25 14.75 7.586 14.75 8ZM14 11.25H10.5C10.086 11.25 9.75 11.586 9.75 12C9.75 12.414 10.086 12.75 10.5 12.75H14C14.414 12.75 14.75 12.414 14.75 12C14.75 11.586 14.414 11.25 14 11.25ZM14 15.25H10.5C10.086 15.25 9.75 15.586 9.75 16C9.75 16.414 10.086 16.75 10.5 16.75H14C14.414 16.75 14.75 16.414 14.75 16C14.75 15.586 14.414 15.25 14 15.25ZM6.96997 6.96997L6.49902 7.44098C6.20502 7.17698 5.75197 7.18797 5.46997 7.46997C5.17697 7.76297 5.17697 8.23801 5.46997 8.53101L5.96997 9.03101C6.11597 9.17701 6.308 9.25098 6.5 9.25098C6.692 9.25098 6.88403 9.17801 7.03003 9.03101L8.03003 8.03101C8.32303 7.73801 8.32303 7.26297 8.03003 6.96997C7.73703 6.67697 7.26297 6.67697 6.96997 6.96997ZM6.96997 10.97L6.49902 11.441C6.20502 11.177 5.75197 11.188 5.46997 11.47C5.17697 11.763 5.17697 12.238 5.46997 12.531L5.96997 13.031C6.11597 13.177 6.308 13.251 6.5 13.251C6.692 13.251 6.88403 13.178 7.03003 13.031L8.03003 12.031C8.32303 11.738 8.32303 11.263 8.03003 10.97C7.73703 10.677 7.26297 10.677 6.96997 10.97ZM6.96997 14.97L6.49902 15.441C6.20502 15.177 5.75197 15.188 5.46997 15.47C5.17697 15.763 5.17697 16.238 5.46997 16.531L5.96997 17.031C6.11597 17.177 6.308 17.251 6.5 17.251C6.692 17.251 6.88403 17.178 7.03003 17.031L8.03003 16.031C8.32303 15.738 8.32303 15.263 8.03003 14.97C7.73703 14.677 7.26297 14.677 6.96997 14.97ZM21.75 11.5V19C21.75 20.517 20.517 21.75 19 21.75H6C3.582 21.75 2.25 20.418 2.25 18V6C2.25 3.582 3.582 2.25 6 2.25H14C16.418 2.25 17.75 3.582 17.75 6V9.25H19.5C20.74 9.25 21.75 10.259 21.75 11.5ZM16.551 20.25C16.359 19.875 16.25 19.45 16.25 19V6C16.25 4.423 15.577 3.75 14 3.75H6C4.423 3.75 3.75 4.423 3.75 6V18C3.75 19.577 4.423 20.25 6 20.25H16.551ZM20.25 11.5C20.25 11.086 19.913 10.75 19.5 10.75H17.75V19C17.75 19.689 18.311 20.25 19 20.25C19.689 20.25 20.25 19.689 20.25 19V11.5Z" fill="currentColor"/>
</svg>

<svg xmlns="http://www.w3.org/2000/svg" width="24" height="24" fill="none"><path fill="currentColor" d="M14.75 8a.75.75 0 0 1-.75.75h-3.5a.75.75 0 0 1 0-1.5H14a.75.75 0 0 1 .75.75ZM14 11.25h-3.5a.75.75 0 0 0 0 1.5H14a.75.75 0 0 0 0-1.5Zm0 4h-3.5a.75.75 0 0 0 0 1.5H14a.75.75 0 0 0 0-1.5ZM6.97 6.97l-.471.471a.75.75 0 0 0-1.029 1.09l.5.5a.748.748 0 0 0 1.06 0l1-1A.75.75 0 0 0 6.97 6.97Zm0 4-.471.471a.75.75 0 0 0-1.029 1.09l.5.5a.748.748 0 0 0 1.06 0l1-1a.75.75 0 0 0-1.06-1.061Zm0 4-.471.471a.75.75 0 0 0-1.029 1.09l.5.5a.748.748 0 0 0 1.06 0l1-1a.75.75 0 0 0-1.06-1.061Zm14.78-3.47V19A2.752 2.752 0 0 1 19 21.75H6c-2.418 0-3.75-1.332-3.75-3.75V6c0-2.418 1.332-3.75 3.75-3.75h8c2.418 0 3.75 1.332 3.75 3.75v3.25h1.75c1.24 0 2.25 1.009 2.25 2.25Zm-5.199 8.75A2.736 2.736 0 0 1 16.25 19V6c0-1.577-.673-2.25-2.25-2.25H6c-1.577 0-2.25.673-2.25 2.25v12c0 1.577.673 2.25 2.25 2.25h10.551Zm3.699-8.75a.75.75 0 0 0-.75-.75h-1.75V19c0 .689.561 1.25 1.25 1.25s1.25-.561 1.25-1.25v-7.5Z"/></svg>
